X: 60
T: Warren's Trip to Stockholm
T: The Perth Assembly Reassembled
C: Mike Richardson
O: Seattle, Washington
%R: reel
Z: Collected and edited 2014 by John Chambers <jc:trillian.mit.edu>
B: GEMS The Best of the Country Dance and Song Society Diamond Jubilee Music, Dance and Song Contest 1993 p.83
M: C|
L: 1/8
K: A
% - - - - - - - - - - - - - - - - - - - - - - - - -
|:\
"A"c2ec "D"d2fd | "A"c2ec "E"dBBd |\
"A"c2ec "D"defg | "E"afed "A"cAAB |\
"A"c2ec "D"d2fd | "A"c2ec "E"dBBd |
"A"cdef "D"geaf | "E7"edcB "A"cAAB :|\
"A"cAeA ceAc | "E"BAGA BcdB |\
"A"cAeA ceAc | "E7"BAGB "A"(3AAA AB |
"A"cAeA ceAc | "E"BAGA BcdB |\
"A"ABcd efge | "D"afed "E7"cAAB |]\
"A"(3cBA eA aAeA | "E"BAGA BcdB |
"A"(3cBA eA aAeA | "E7"BAGB "A"(3AAA AB |\
"A"(3cBA eA aAeA | "E"BAGA BcdB |\
"A"ABcd efge | "D"afed "E7"cAAB |]
% - - - - - - - - - - - - - - - - - - - - - - - - -

